svg/fluentui-system-icons/ic_fluent_image_table_48_filled.svg

<svg width="48" height="48" viewBox="0 0 48 48" fill="none" xmlns="http://www.w3.org/2000/svg">
<path d="M12 6.00491C8.74705 6.13287 6.13287 8.74705 6.00491 12H12V6.00491ZM6 14.5V33.5H12V14.5H6ZM14.5 12H33.5V6H14.5V12ZM36 6.00491V12H41.9951C41.8671 8.74704 39.253 6.13287 36 6.00491ZM42 14.5H36V33.5H42V14.5ZM41.9951 36H36V41.9951C39.253 41.8671 41.8671 39.253 41.9951 36ZM33.5 42V36H14.5V42H33.5ZM12 41.9951V36H6.00491C6.13287 39.253 8.74704 41.8671 12 41.9951ZM14.5 31.9467L21.3483 25.0984C22.8128 23.6339 25.1872 23.6339 26.6516 25.0983L33.5 31.9467V14.5H14.5V31.9467ZM26.5 19C26.5 17.6193 27.6193 16.5 29 16.5C30.3807 16.5 31.5 17.6193 31.5 19C31.5 20.3807 30.3807 21.5 29 21.5C27.6193 21.5 26.5 20.3807 26.5 19ZM31.5178 33.5L24.8839 26.8661C24.3957 26.378 23.6043 26.378 23.1161 26.8661L16.4822 33.5H31.5178Z" fill="#212121"/>
</svg>

<svg xmlns="http://www.w3.org/2000/svg" width="48" height="48"><path d="M12 6.005A6.25 6.25 0 0 0 6.005 12H12V6.005ZM6 14.5v19h6v-19H6Zm8.5-2.5h19V6h-19v6ZM36 6.005V12h5.995A6.25 6.25 0 0 0 36 6.005Zm6 8.495h-6v19h6v-19ZM41.995 36H36v5.995A6.25 6.25 0 0 0 41.995 36ZM33.5 42v-6h-19v6h19ZM12 41.995V36H6.005A6.25 6.25 0 0 0 12 41.995Zm2.5-10.048 6.848-6.849a3.75 3.75 0 0 1 5.304 0l6.848 6.849V14.5h-19v17.447ZM26.5 19a2.5 2.5 0 1 1 5 0 2.5 2.5 0 0 1-5 0Zm5.018 14.5-6.634-6.634a1.25 1.25 0 0 0-1.768 0L16.482 33.5h15.036Z"/></svg>
